X:1
T:Come to the Bower
M:4/4
L:1/8
K:E
 B,B,| E2 G3/2 E/2 F2 GA| B2 BA FE DB,| E2 DE F2 GA| B2 BA FE GB| e2 df e2 BB|\
 e2 dB cB cd| e2 df e2 GA| B2 BA FE DB,| E2 G3/2 E/2 FG Ac| B2 B3/2 A/2F-E||\
